stamper.svg

<svg fill="currentColor" viewBox="0 0 24 24"><path d="M12 3a3 3 0 0 0-3 3c0 3 5 7-3 7a2 2 0 0 0-2 2v2h16v-2a2 2 0 0 0-2-2c-8 0-3-4-3-7 0-2-1.34-3-3-3M6 19v2h12v-2z"/></svg>

<svg  viewBox="0 0 24 24" fill="currentColor"><path  d="M12,3A3,3 0 0,0 9,6C9,9 14,13 6,13A2,2 0 0,0 4,15V17H20V15A2,2 0 0,0 18,13C10,13 15,9 15,6C15,4 13.66,3 12,3M6,19V21H18V19H6Z"/></svg>
